build/documents/VerifySignOutline.svg

<svg xmlns="http://www.w3.org/2000/svg" fill="none" viewBox="0 0 24 24" focusable="false"><path d="M0 0H24V24H0z"/><path fill="#74767B" fill-rule="evenodd" d="M19.5397 8.57782C18.9767 8.94652 18.3036 9.16092 17.5805 9.16092C15.603 9.16092 14 7.55789 14 5.58046C14 3.60303 15.603 2 17.5805 2C19.5579 2 21.1609 3.60303 21.1609 5.58046C21.1609 6.36496 20.9086 7.09054 20.4807 7.68046L21.7796 8.98312C22.0331 9.23733 22.0325 9.64889 21.7783 9.90236C21.5241 10.1558 21.1125 10.1552 20.8591 9.90103L19.5397 8.57782ZM19.8609 5.58046C19.8609 6.83992 18.8399 7.86092 17.5805 7.86092C16.321 7.86092 15.3 6.83992 15.3 5.58046C15.3 4.321 16.321 3.3 17.5805 3.3C18.8399 3.3 19.8609 4.321 19.8609 5.58046ZM9.27984 4.47157C8.77215 3.96389 7.94904 3.96389 7.44136 4.47157L5.7443 6.16863C5.23662 6.67631 5.23662 7.49942 5.7443 8.0071L16.2167 18.4795C16.6142 18.877 17.1155 19.1549 17.6634 19.2813L19.3945 19.6808C20.3306 19.8968 21.1695 19.0579 20.9535 18.1218L20.554 16.3907C20.4276 15.8428 20.1498 15.3415 19.7522 14.9439L9.27984 4.47157ZM8.3606 5.39081L6.66354 7.08786L8.28467 8.709L9.98173 7.01194L8.3606 5.39081ZM10.901 7.93118L18.8329 15.8632C19.0582 16.0885 19.2157 16.3725 19.2873 16.683L19.6868 18.4141L17.9557 18.0146C17.6453 17.943 17.3612 17.7855 17.1359 17.5602L9.20391 9.62824L10.901 7.93118ZM6.65244 19.9092C7.83343 19.9092 8.55417 19.3011 9.10676 18.8349L9.139 18.8077C9.70604 18.3297 10.106 18.0123 10.7938 18.0123C12.0657 18.0123 12.6924 18.7912 13.1616 19.3744C13.2575 19.4936 13.3468 19.6047 13.4337 19.6992C13.6767 19.9634 14.0879 19.9806 14.3522 19.7376C14.6164 19.4946 14.6336 19.0835 14.3906 18.8192C14.358 18.7837 14.3131 18.725 14.2552 18.6493C13.8432 18.1105 12.7739 16.7123 10.7938 16.7123C9.6069 16.7123 8.88411 17.322 8.32979 17.7896L8.30111 17.8138C7.7328 18.2928 7.33539 18.6092 6.65245 18.6092C5.26833 18.6092 4.6649 17.7839 4.28518 17.2646C4.24801 17.2137 4.21297 17.1658 4.17956 17.1219C3.96221 16.8362 3.5544 16.7808 3.26869 16.9981C2.98298 17.2155 2.92757 17.6233 3.14493 17.909C3.16983 17.9417 3.19894 17.9823 3.23261 18.0293C3.61403 18.5611 4.58092 19.9092 6.65244 19.9092Z"/></svg>

<svg xmlns="http://www.w3.org/2000/svg" fill="none" viewBox="0 0 24 24" focusable="false"><path fill="#74767B" fill-rule="evenodd" d="M17.58 9.16c.72 0 1.39-.22 1.95-.59l1.32 1.33c.26.25.67.25.92 0a.64.64 0 0 0 0-.92l-1.29-1.3c.42-.59.68-1.32.68-2.1C21.16 3.6 19.55 2 17.58 2 15.6 2 14 3.6 14 5.58c0 1.97 1.6 3.58 3.58 3.58m0-1.3c1.25 0 2.28-1.03 2.28-2.28 0-1.26-1.03-2.29-2.28-2.29a2.285 2.285 0 0 0 0 4.57M9.27 4.47c-.5-.51-1.33-.51-1.83 0l-1.7 1.69c-.51.51-.51 1.33 0 1.84l10.47 10.47c.4.4.9.68 1.45.81l1.73.4c.94.21 1.77-.63 1.56-1.56l-.4-1.73c-.13-.55-.41-1.05-.8-1.45zm-.91.92-1.7 1.69L8.28 8.7l1.7-1.69zm2.54 2.54 7.93 7.93c.22.22.38.51.45.82l.4 1.73-1.73-.4c-.31-.07-.59-.23-.82-.45L9.2 9.62zM6.65 19.9c1.18 0 1.9-.6 2.45-1.07l.03-.03c.57-.48.97-.79 1.66-.79 1.27 0 1.9.78 2.37 1.36.09.12.18.23.27.32.24.27.65.29.92.04.26-.24.28-.65.04-.92-.04-.03-.08-.09-.14-.17-.41-.53-1.48-1.93-3.46-1.93-1.19 0-1.91.61-2.47 1.07l-.02.03c-.57.48-.97.79-1.65.79-1.39 0-1.99-.82-2.37-1.34-.04-.05-.07-.1-.11-.14a.65.65 0 0 0-.91-.13c-.28.22-.34.63-.12.91q.03.06.09.12c.38.54 1.35 1.88 3.42 1.88"/></svg>
